src/material_cursors/pencil.svg

<svg xmlns="http://www.w3.org/2000/svg" id="svg2" width="32" height="32" version="1.1">
 <defs id="defs4">
  <filter id="filter890" style="color-interpolation-filters:sRGB" width="1.096" height="1.096" x="-.05" y="-.05">
   <feGaussianBlur id="feGaussianBlur892" stdDeviation=".36"/>
  </filter>
 </defs>
 <path id="path857" style="color:#000000;font-style:normal;font-variant:normal;font-weight:normal;font-stretch:normal;font-size:medium;line-height:normal;font-family:Sans;-inkscape-font-specification:Sans;text-indent:0;text-align:start;text-decoration:none;text-decoration-line:none;letter-spacing:normal;word-spacing:normal;text-transform:none;writing-mode:lr-tb;direction:ltr;baseline-shift:baseline;text-anchor:start;display:inline;overflow:visible;visibility:visible;opacity:0.3;fill:#000000;fill-opacity:1;fill-rule:nonzero;stroke:none;stroke-width:2.02299356;marker:none;filter:url(#filter890);enable-background:accumulate" d="m 16.810547,12.4999 a 1.012097,1.0110992 0 0 0 -0.123047,0.01 1.012097,1.0110992 0 0 0 -0.314453,0.09 c -0.0068,0 -0.01283,0.01 -0.01953,0.01 a 1.012097,1.0110992 0 0 0 -0.267578,0.1855 l -1.730469,1.7344 -2.5,2.498 h 0.002 l -8.5156251,8.5293 a 1.012097,1.0110992 0 0 0 -0.1152344,0.1562 c -0.00105,0 -9.179e-4,0 -0.00195,0.01 a 1.012097,1.0110992 0 0 0 -0.00195,0 1.012097,1.0110992 0 0 0 -0.00977,0.02 c -0.00327,0.01 -0.00662,0.012 -0.00977,0.018 A 1.012097,1.0110992 0 0 0 3.125,25.955 c -0.00135,0 -0.00458,0.01 -0.00586,0.014 L 2.4218744,28.0627 2.0449213,29.1916 A 1.012097,1.0110992 0 0 0 2,29.4901 a 1.012097,1.0110992 0 0 0 0.00586,0.1 1.012097,1.0110992 0 0 0 0.015625,0.098 1.012097,1.0110992 0 0 0 0.023437,0.098 1.012097,1.0110992 0 0 0 0.035156,0.094 1.012097,1.0110992 0 0 0 1.2285157,0.5703 h 0.00195 L 3.8964812,30.2551 4.3515593,30.1027 6.535153,29.3781 c 0.00618,0 0.011435,-0.01 0.017578,-0.01 a 1.012097,1.0110992 0 0 0 0.2011718,-0.08 c 0.00412,0 0.00763,-0.01 0.011719,-0.01 a 1.012097,1.0110992 0 0 0 0.1816406,-0.1269 l 8.5156256,-8.5293 0.01367,0.014 2.5,-2.498 -0.01758,-0.016 1.732422,-1.7344 a 1.012097,1.0110992 0 0 0 0.230469,-1.1132 c 0,0 -0.002,0 -0.002,0 0,0 0,0 0,0 a 1.012097,1.0110992 0 0 0 -0.228516,-0.3339 l -2.15039,-2.1485 a 1.012097,1.0110992 0 0 0 -0.183594,-0.1445 c -0.0025,0 -0.0053,0 -0.0078,0 a 1.012097,1.0110992 0 0 0 -0.203125,-0.094 c -0.0032,-10e-4 -0.0066,-9e-4 -0.0098,0 a 1.012097,1.0110992 0 0 0 -0.195313,-0.043 c -0.0099,0 -0.01939,0 -0.0293,0 a 1.012097,1.0110992 0 0 0 -0.002,0 1.012097,1.0110992 0 0 0 -0.09961,0 z"/>
 <path id="path826" style="color:#000000;font-style:normal;font-variant:normal;font-weight:normal;font-stretch:normal;font-size:medium;line-height:normal;font-family:Sans;-inkscape-font-specification:Sans;text-indent:0;text-align:start;text-decoration:none;text-decoration-line:none;letter-spacing:normal;word-spacing:normal;text-transform:none;writing-mode:lr-tb;direction:ltr;baseline-shift:baseline;text-anchor:start;display:inline;overflow:visible;visibility:visible;fill:none;fill-opacity:1;fill-rule:nonzero;stroke:#010101;stroke-width:2;marker:none;enable-background:accumulate;stroke-opacity:1;stroke-miterlimit:4;stroke-dasharray:none;stroke-linejoin:round;stroke-linecap:round;opacity:0.75" d="M 16.921875 12.003906 C 16.844776 11.996628 16.765779 11.998966 16.6875 12.009766 C 16.460771 12.034766 16.24842 12.135022 16.085938 12.294922 L 14.355469 14.029297 L 11.855469 16.527344 L 11.857422 16.529297 L 3.3417969 25.058594 C 3.2981266 25.10767 3.2636251 25.162542 3.2304688 25.21875 L 3.2265625 25.214844 C 3.2229886 25.22087 3.2221942 25.228269 3.21875 25.234375 C 3.1884085 25.288167 3.1665649 25.345687 3.1464844 25.404297 C 3.1389377 25.426474 3.1251423 25.446097 3.1191406 25.46875 L 2.421875 27.5625 L 2.0449219 28.691406 A 1.012097 1.0110992 0 0 0 3.3085938 29.955078 L 4.3515625 29.607422 L 6.5351562 28.882812 C 6.5528718 28.878026 6.5685364 28.867065 6.5859375 28.861328 C 6.6523464 28.839619 6.7170167 28.81389 6.7773438 28.779297 C 6.7811103 28.777101 6.7853228 28.775685 6.7890625 28.773438 L 6.7871094 28.771484 C 6.842935 28.738556 6.8984744 28.703479 6.9472656 28.660156 L 15.462891 20.130859 L 15.476562 20.144531 L 17.976562 17.646484 L 17.958984 17.630859 L 19.691406 15.894531 C 20.101676 15.497231 20.1017 14.840659 19.691406 14.443359 L 17.541016 12.294922 C 17.372964 12.127822 17.153173 12.025741 16.921875 12.003906 z"/>
 <path id="path823" style="color:#000000;font-style:normal;font-variant:normal;font-weight:normal;font-stretch:normal;font-size:medium;line-height:normal;font-family:Sans;-inkscape-font-specification:Sans;text-indent:0;text-align:start;text-decoration:none;text-decoration-line:none;letter-spacing:normal;word-spacing:normal;text-transform:none;writing-mode:lr-tb;direction:ltr;baseline-shift:baseline;text-anchor:start;display:inline;overflow:visible;visibility:visible;fill:#fa9500;fill-opacity:1;fill-rule:nonzero;stroke:none;stroke-width:2.02299356;marker:none;enable-background:accumulate" d="M 11.966653,16.4204 3.3414872,25.0583 C 3.2366626,25.1761 3.1608664,25.3168 3.120151,25.4691 l 3.4155065,3.4121 C 6.6880703,28.8402 6.8288529,28.7648 6.946768,28.6601 L 15.59405,20 Z"/>
 <path id="path825" style="color:#000000;font-style:normal;font-variant:normal;font-weight:normal;font-stretch:normal;font-size:medium;line-height:normal;font-family:Sans;-inkscape-font-specification:Sans;text-indent:0;text-align:start;text-decoration:none;text-decoration-line:none;letter-spacing:normal;word-spacing:normal;text-transform:none;writing-mode:lr-tb;direction:ltr;baseline-shift:baseline;text-anchor:start;display:inline;overflow:visible;visibility:visible;fill:#ffa275;fill-opacity:1;fill-rule:nonzero;stroke:none;stroke-width:2.02299356;marker:none;enable-background:accumulate" d="m 3.2257039,25.2153 c -0.046849,0.079 -0.082587,0.165 -0.10622,0.2542 l -0.6983465,2.0929 1.930445,2.0454 2.1837208,-0.7259 c 0.088826,-0.024 0.1739346,-0.06 0.2529722,-0.1075 z"/>
 <path id="rect830" style="opacity:1;fill:#4f4f4f;fill-opacity:1;stroke:none;stroke-width:2.65698457;stroke-linecap:round;stroke-linejoin:round;stroke-miterlimit:4;stroke-dasharray:none;stroke-dashoffset:0;stroke-opacity:1;paint-order:normal" d="m 2.4947411,27.3446 -0.4500386,1.346 A 1.012097,1.0110992 0 0 0 3.309562,29.9542 L 4.6582795,29.506 Z"/>
 <path id="path835" style="color:#000000;font-style:normal;font-variant:normal;font-weight:normal;font-stretch:normal;font-size:medium;line-height:normal;font-family:Sans;-inkscape-font-specification:Sans;text-indent:0;text-align:start;text-decoration:none;text-decoration-line:none;letter-spacing:normal;word-spacing:normal;text-transform:none;writing-mode:lr-tb;direction:ltr;baseline-shift:baseline;text-anchor:start;display:inline;overflow:visible;visibility:visible;fill:#ef5350;fill-opacity:1;fill-rule:nonzero;stroke:none;stroke-width:2.02299356;marker:none;enable-background:accumulate" d="m 16.086741,12.2944 -1.731391,1.7352 3.604501,3.601 1.731395,-1.7353 c 0.41027,-0.3973 0.410293,-1.0548 -1e-6,-1.4521 l -2.15096,-2.1488 c -0.224069,-0.2228 -0.53944,-0.3281 -0.852557,-0.2849 -0.226729,0.025 -0.4385,0.125 -0.600982,0.2849 z"/>
 <path id="rect840" style="opacity:1;fill:#bcbcbc;fill-opacity:1;stroke:none;stroke-width:3.43638492;stroke-linecap:round;stroke-linejoin:round;stroke-miterlimit:4;stroke-dasharray:none;stroke-dashoffset:0;stroke-opacity:1;paint-order:normal" d="m 11.855359,16.5271 2.49997,-2.4975 3.620881,3.6173 -2.49997,2.4975 z"/>
</svg>

<svg xmlns="http://www.w3.org/2000/svg" id="svg2" width="32" height="32" version="1.1">
 <defs id="defs4">
  <filter id="filter890" style="color-interpolation-filters:sRGB" width="1.096" height="1.096" x="-.05" y="-.05">
   <feGaussianBlur id="feGaussianBlur892" stdDeviation=".36"/>
  </filter>
 </defs>
 <path id="path857" style="color:#000000;font-style:normal;font-variant:normal;font-weight:normal;font-stretch:normal;font-size:medium;line-height:normal;font-family:Sans;-inkscape-font-specification:Sans;text-indent:0;text-align:start;text-decoration:none;text-decoration-line:none;letter-spacing:normal;word-spacing:normal;text-transform:none;writing-mode:lr-tb;direction:ltr;baseline-shift:baseline;text-anchor:start;display:inline;overflow:visible;visibility:visible;opacity:0.3;fill:#000000;fill-opacity:1;fill-rule:nonzero;stroke:none;stroke-width:2.02299356;marker:none;filter:url(#filter890);enable-background:accumulate" d="m 16.810547,12.4999 a 1.012097,1.0110992 0 0 0 -0.123047,0.01 1.012097,1.0110992 0 0 0 -0.314453,0.09 c -0.0068,0 -0.01283,0.01 -0.01953,0.01 a 1.012097,1.0110992 0 0 0 -0.267578,0.1855 l -1.730469,1.7344 -2.5,2.498 h 0.002 l -8.5156251,8.5293 a 1.012097,1.0110992 0 0 0 -0.1152344,0.1562 c -0.00105,0 -9.179e-4,0 -0.00195,0.01 a 1.012097,1.0110992 0 0 0 -0.00195,0 1.012097,1.0110992 0 0 0 -0.00977,0.02 c -0.00327,0.01 -0.00662,0.012 -0.00977,0.018 A 1.012097,1.0110992 0 0 0 3.125,25.955 c -0.00135,0 -0.00458,0.01 -0.00586,0.014 L 2.4218744,28.0627 2.0449213,29.1916 A 1.012097,1.0110992 0 0 0 2,29.4901 a 1.012097,1.0110992 0 0 0 0.00586,0.1 1.012097,1.0110992 0 0 0 0.015625,0.098 1.012097,1.0110992 0 0 0 0.023437,0.098 1.012097,1.0110992 0 0 0 0.035156,0.094 1.012097,1.0110992 0 0 0 1.2285157,0.5703 h 0.00195 L 3.8964812,30.2551 4.3515593,30.1027 6.535153,29.3781 c 0.00618,0 0.011435,-0.01 0.017578,-0.01 a 1.012097,1.0110992 0 0 0 0.2011718,-0.08 c 0.00412,0 0.00763,-0.01 0.011719,-0.01 a 1.012097,1.0110992 0 0 0 0.1816406,-0.1269 l 8.5156256,-8.5293 0.01367,0.014 2.5,-2.498 -0.01758,-0.016 1.732422,-1.7344 a 1.012097,1.0110992 0 0 0 0.230469,-1.1132 c 0,0 -0.002,0 -0.002,0 0,0 0,0 0,0 a 1.012097,1.0110992 0 0 0 -0.228516,-0.3339 l -2.15039,-2.1485 a 1.012097,1.0110992 0 0 0 -0.183594,-0.1445 c -0.0025,0 -0.0053,0 -0.0078,0 a 1.012097,1.0110992 0 0 0 -0.203125,-0.094 c -0.0032,-10e-4 -0.0066,-9e-4 -0.0098,0 a 1.012097,1.0110992 0 0 0 -0.195313,-0.043 c -0.0099,0 -0.01939,0 -0.0293,0 a 1.012097,1.0110992 0 0 0 -0.002,0 1.012097,1.0110992 0 0 0 -0.09961,0 z"/>
 <path id="path823" style="color:#000000;font-style:normal;font-variant:normal;font-weight:normal;font-stretch:normal;font-size:medium;line-height:normal;font-family:Sans;-inkscape-font-specification:Sans;text-indent:0;text-align:start;text-decoration:none;text-decoration-line:none;letter-spacing:normal;word-spacing:normal;text-transform:none;writing-mode:lr-tb;direction:ltr;baseline-shift:baseline;text-anchor:start;display:inline;overflow:visible;visibility:visible;fill:#fa9500;fill-opacity:1;fill-rule:nonzero;stroke:none;stroke-width:2.02299356;marker:none;enable-background:accumulate" d="M 11.966653,16.4204 3.3414872,25.0583 C 3.2366626,25.1761 3.1608664,25.3168 3.120151,25.4691 l 3.4155065,3.4121 C 6.6880703,28.8402 6.8288529,28.7648 6.946768,28.6601 L 15.59405,20 Z"/>
 <path id="path825" style="color:#000000;font-style:normal;font-variant:normal;font-weight:normal;font-stretch:normal;font-size:medium;line-height:normal;font-family:Sans;-inkscape-font-specification:Sans;text-indent:0;text-align:start;text-decoration:none;text-decoration-line:none;letter-spacing:normal;word-spacing:normal;text-transform:none;writing-mode:lr-tb;direction:ltr;baseline-shift:baseline;text-anchor:start;display:inline;overflow:visible;visibility:visible;fill:#ffa275;fill-opacity:1;fill-rule:nonzero;stroke:none;stroke-width:2.02299356;marker:none;enable-background:accumulate" d="m 3.2257039,25.2153 c -0.046849,0.079 -0.082587,0.165 -0.10622,0.2542 l -0.6983465,2.0929 1.930445,2.0454 2.1837208,-0.7259 c 0.088826,-0.024 0.1739346,-0.06 0.2529722,-0.1075 z"/>
 <path id="rect830" style="opacity:1;fill:#4f4f4f;fill-opacity:1;stroke:none;stroke-width:2.65698457;stroke-linecap:round;stroke-linejoin:round;stroke-miterlimit:4;stroke-dasharray:none;stroke-dashoffset:0;stroke-opacity:1;paint-order:normal" d="m 2.4947411,27.3446 -0.4500386,1.346 A 1.012097,1.0110992 0 0 0 3.309562,29.9542 L 4.6582795,29.506 Z"/>
 <path id="path835" style="color:#000000;font-style:normal;font-variant:normal;font-weight:normal;font-stretch:normal;font-size:medium;line-height:normal;font-family:Sans;-inkscape-font-specification:Sans;text-indent:0;text-align:start;text-decoration:none;text-decoration-line:none;letter-spacing:normal;word-spacing:normal;text-transform:none;writing-mode:lr-tb;direction:ltr;baseline-shift:baseline;text-anchor:start;display:inline;overflow:visible;visibility:visible;fill:#ef5350;fill-opacity:1;fill-rule:nonzero;stroke:none;stroke-width:2.02299356;marker:none;enable-background:accumulate" d="m 16.086741,12.2944 -1.731391,1.7352 3.604501,3.601 1.731395,-1.7353 c 0.41027,-0.3973 0.410293,-1.0548 -1e-6,-1.4521 l -2.15096,-2.1488 c -0.224069,-0.2228 -0.53944,-0.3281 -0.852557,-0.2849 -0.226729,0.025 -0.4385,0.125 -0.600982,0.2849 z"/>
 <path id="rect840" style="opacity:1;fill:#bcbcbc;fill-opacity:1;stroke:none;stroke-width:3.43638492;stroke-linecap:round;stroke-linejoin:round;stroke-miterlimit:4;stroke-dasharray:none;stroke-dashoffset:0;stroke-opacity:1;paint-order:normal" d="m 11.855359,16.5271 2.49997,-2.4975 3.620881,3.6173 -2.49997,2.4975 z"/>
 <path id="path905" style="color:#000000;font-style:normal;font-variant:normal;font-weight:normal;font-stretch:normal;font-size:medium;line-height:normal;font-family:Sans;-inkscape-font-specification:Sans;font-variant-ligatures:normal;font-variant-position:normal;font-variant-caps:normal;font-variant-numeric:normal;font-variant-alternates:normal;font-feature-settings:normal;text-indent:0;text-align:start;text-decoration:none;text-decoration-line:none;text-decoration-style:solid;text-decoration-color:#000000;letter-spacing:normal;word-spacing:normal;text-transform:none;writing-mode:lr-tb;direction:ltr;text-orientation:mixed;dominant-baseline:auto;baseline-shift:baseline;text-anchor:start;white-space:normal;shape-padding:0;clip-rule:nonzero;display:inline;overflow:visible;visibility:visible;opacity:0.05;isolation:auto;mix-blend-mode:normal;color-interpolation:sRGB;color-interpolation-filters:linearRGB;solid-color:#000000;solid-opacity:1;vector-effect:none;fill:#010101;fill-opacity:1;fill-rule:nonzero;stroke:none;stroke-width:2;stroke-linecap:round;stroke-linejoin:round;stroke-miterlimit:4;stroke-dasharray:none;stroke-dashoffset:0;stroke-opacity:1;marker:none;color-rendering:auto;image-rendering:auto;shape-rendering:auto;text-rendering:auto;enable-background:accumulate" d="m 16.921875,12.003906 c -0.0771,-0.0073 -0.156096,-0.0049 -0.234375,0.0059 -0.226729,0.025 -0.43908,0.125256 -0.601562,0.285156 l -1.730469,1.734375 -2.5,2.498047 0.002,0.002 -0.708984,0.708984 -7.8066411,7.820313 c -0.04367,0.04908 -0.078172,0.103948 -0.1113281,0.160156 l -0.00391,-0.0039 c -0.00357,0.006 -0.00437,0.01343 -0.00781,0.01953 -0.030342,0.05379 -0.052185,0.111312 -0.072266,0.169922 -0.00755,0.02218 -0.021342,0.0418 -0.027344,0.06445 L 2.421875,27.5625 2.0449219,28.691406 a 1.012097,1.0110992 0 0 0 1.2636719,1.263672 l 1.0429687,-0.347656 2.1835937,-0.72461 c 0.017716,-0.0048 0.03338,-0.01575 0.050781,-0.02148 0.066409,-0.02171 0.1310792,-0.04744 0.1914063,-0.08203 0.00377,-0.0022 0.00798,-0.0036 0.011719,-0.0059 l -0.00195,-0.002 c 0.055826,-0.03293 0.111365,-0.068 0.1601562,-0.111328 l 8.5156253,-8.529297 0.01367,0.01367 2.5,-2.498047 -0.01758,-0.01563 1.732422,-1.736328 c 0.41027,-0.3973 0.410294,-1.053872 0,-1.451172 l -2.15039,-2.148437 c -0.168052,-0.1671 -0.387843,-0.269181 -0.619141,-0.291016 z M 16.824219,13 c 0.0074,-10e-4 0.01039,6e-4 0.0039,0 -2.6e-5,0 0.0045,6e-4 0.0078,0 l 2.148437,2.146484 c 0.0039,0 0.0078,0.0097 0.01172,0.01172 0.01475,0.014 0.01477,-9.28e-4 0,0.01367 -0.0039,0 -0.0078,0.0097 -0.01172,0.01172 l -1.732422,1.736328 c -0.05004,0.051 -0.09456,0.106116 -0.132812,0.166016 l -1.642579,1.640624 c 0,0 -0.330173,0.30296 -0.720703,0.69336 l -8.47459,8.488281 c 0,0 -0.00195,0 -0.00195,0 0,0 -0.00195,0 -0.00195,0 0,0 -0.00195,0 -0.00195,0 H 6.27345 c -0.00393,0 -0.00784,0.01172 -0.011719,0.01172 -0.013756,0 -0.027431,0.0097 -0.041016,0.01172 L 4.0371094,28.65625 h -0.00195 L 3.015625,28.996094 c -0.055406,0.017 -0.031003,0.02328 -0.013672,-0.01172 l 0.3691407,-1.107422 0.6972656,-2.09375 c 0.00417,-0.013 0.00808,-0.02606 0.011719,-0.03906 0.00397,-0.01 0.00788,-0.01353 0.011719,-0.01953 l 8.4726557,-8.488281 c 0.01551,-0.016 0.03049,-0.03183 0.04492,-0.04883 l 2.453125,-2.451172 1.724609,-1.728516 c 9.64e-4,-9e-4 0.0049,0 0.0098,0 0.0091,10e-5 0.01823,10e-5 0.02734,0 z"/>
</svg>
